X: 2
T: Custy's
R: jig
M: 6/8
L: 1/8
K: Bmin
|:ced AGE|GAB A2 d|eag ecd|eAB AGE|ced AGE|~G3 Gcd|eaa ged|cAG A3 :||:a3 ged|edg edc|AcA GAc|dec deg|aeg dec|AcA GEE|cde ged|cAG A3 :|


Tune 1204	Setting 1204

